X: 86
T:Wee Emma
% Nottingham Music Database
S:Chris Dewhurst 1984, via Phil Rowe
M:6/8
K:F
"C7"A2B |"F"cac "C7"BgB|"F"A2f c2B|"F"A^GA "D7"dcA|"Gm"c3 B3|
"C"b2a g2f|"C"ege "Gm"d2f| [1"C"edc "F/dim"=Bcd|"F"c3 :|
"C"edc cde|"F"f3 ||"F""c"A2B |"F"cdc "Bb"fed|"F"cdc A2c|fef agf|"C""g"f3 e2f|
"C"gag g2e|"C"cdc cGA|"Gm"BAB "C7"dcB|"F"B3 A2B|"F"cdc "Bb"fed|"F"cdc A2c|
"F"fef agf|"Bb"e3 "D7"d3|"Gm"b2a g2f|"C"ege "Gm"d2f|"C"edc cde|"F"f3 ||<end>
<start>
